X: 1
T: Hundred Pipers, A
C: Carolina Oliphant
R: Jig
L: 1/8
M: 6/8
K: A
Z: ABC transcription by Verge Roller
|: A/B/ | "A" c2 E E>FE | "D" F2 A A2 f | "A" e2 c c>BA | "E" c2 B B>AB |
"A" c2 E E>FE | "D" F2 A A2 f | "A" e2 c "E" B>cB | "A" A3 A2 :|
|: c/d/ | "A" e2 e e>ce | "D" f2 a a2 f | "A" e2 c c>BA | "E" c2 B B>cd |
"A" e2 e e>ce | "D" f2 a a2 f | "A" e2 c "E" B>cB | "A" A3 A2 :|
r: 32
